docs/images/category-header.6a21e494cf0b0ff27a532d81d72bc7dc.svg

<svg width="141" height="13" viewBox="0 0 141 13" fill="none" xmlns="http://www.w3.org/2000/svg">
<g id="category header">
<path d="M4.81151 12.6132C6.08351 12.6132 7.09151 12.2052 7.76351 11.4372C8.29151 10.8612 8.55551 10.1412 8.84351 8.74918L7.16351 8.34118C6.73151 10.5012 6.20351 11.1492 4.93151 11.1492C3.27551 11.1492 2.33951 9.39718 2.33951 6.34918C2.33951 3.15718 3.25151 1.47718 4.95551 1.47718C5.65151 1.47718 6.17951 1.76518 6.56351 2.34118C6.80351 2.70118 6.89951 2.96518 7.16351 4.26118L8.91551 3.85318C8.33951 1.16518 7.11551 0.0131836 4.88351 0.0131836C2.05151 0.0131836 0.395508 2.31718 0.395508 6.32518C0.395508 10.3812 1.97951 12.6132 4.81151 12.6132Z" fill="white"/>
<path d="M10.0623 12.3732H11.8383L12.7503 8.96518H16.3023L17.2383 12.3732H18.9903L15.5823 0.253185H13.6623L10.0623 12.3732ZM13.1103 7.57318L14.5263 1.98118L15.9183 7.57318H13.1103Z" fill="white"/>
<path d="M21.5543 12.3732H23.3063V1.69318H26.2823V0.253185H18.6743V1.69318H21.5543V12.3732Z" fill="white"/>
<path d="M27.9721 12.3732H35.1721V10.9332H29.7241V6.80518H33.9481V5.36518H29.7241V1.69318H35.0281V0.253185H27.9721V12.3732Z" fill="white"/>
<path d="M41.2105 12.6132C42.8425 12.6132 43.6105 12.0612 44.2105 10.5252L44.4025 12.5412H45.5305V6.20518H41.2825V7.66918H43.7545V7.69318C43.7545 8.26918 43.6105 9.34919 43.4425 9.75718C43.0585 10.6932 42.3865 11.1492 41.4265 11.1492C39.6265 11.1492 38.6905 9.46918 38.6905 6.27718C38.6905 3.08518 39.6025 1.47718 41.4025 1.47718C42.6745 1.47718 43.2265 2.05318 43.8025 4.04518L45.4585 3.44518C44.7865 0.997184 43.6345 0.0131836 41.4265 0.0131836C38.4265 0.0131836 36.7465 2.26918 36.7465 6.27718C36.7465 10.2852 38.3785 12.6132 41.2105 12.6132Z" fill="white"/>
<path d="M52.2758 12.6132C55.1798 12.6132 56.7878 10.3812 56.7878 6.32518C56.7878 2.29318 55.1798 0.0131836 52.3478 0.0131836C49.3238 0.0131836 47.7158 2.22118 47.7158 6.34918C47.7158 10.3572 49.3478 12.6132 52.2758 12.6132ZM50.3798 10.0212C49.9238 9.22918 49.6598 7.90918 49.6598 6.30118C49.6598 3.08518 50.5478 1.47718 52.2998 1.47718C53.9558 1.47718 54.8438 3.15718 54.8438 6.30118C54.8438 9.49318 53.9558 11.1492 52.2758 11.1492C51.3638 11.1492 50.8358 10.8372 50.3798 10.0212Z" fill="white"/>
<path d="M59.3549 12.3732H61.1069V7.21318H63.2909L65.3069 12.3732H67.2509L64.9469 6.80518C66.2429 6.15718 66.9149 5.07718 66.9149 3.63718C66.9149 1.50118 65.5229 0.253185 63.1229 0.253185H59.3549V12.3732ZM61.1069 5.77318V1.69318H63.0509C64.3949 1.69318 65.1149 2.34118 65.1149 3.58918C65.1149 5.02918 64.3469 5.77318 62.9309 5.77318H61.1069Z" fill="white"/>
<path d="M70.9896 12.3732H72.7416V7.26118L76.2456 0.253185H74.5416L72.0216 5.67718L69.4056 0.253185H67.4856L70.9896 7.26118V12.3732Z" fill="white"/>
<path d="M81.8314 12.3732H83.5834V6.70918H87.9514V12.3732H89.7034V0.253185H87.9514V5.26918H83.5834V0.253185H81.8314V12.3732Z" fill="white"/>
<path d="M92.7533 12.3732H99.9533V10.9332H94.5053V6.80518H98.7293V5.36518H94.5053V1.69318H99.8093V0.253185H92.7533V12.3732Z" fill="white"/>
<path d="M101 12.3732H102.776L103.688 8.96518H107.24L108.176 12.3732H109.928L106.52 0.253185H104.6L101 12.3732ZM104.048 7.57318L105.464 1.98118L106.856 7.57318H104.048Z" fill="white"/>
<path d="M111.972 12.3732H114.684C118.212 12.3732 120.468 9.97318 120.468 6.22918C120.468 2.53318 118.26 0.253185 114.684 0.253185H111.972V12.3732ZM113.724 10.9332V1.69318H114.684C117.108 1.69318 118.524 3.42118 118.524 6.34918C118.524 9.25318 117.132 10.9332 114.684 10.9332H113.724Z" fill="white"/>
<path d="M122.871 12.3732H130.071V10.9332H124.623V6.80518H128.847V5.36518H124.623V1.69318H129.927V0.253185H122.871V12.3732Z" fill="white"/>
<path d="M132.152 12.3732H133.904V7.21318H136.088L138.104 12.3732H140.048L137.744 6.80518C139.04 6.15718 139.712 5.07718 139.712 3.63718C139.712 1.50118 138.32 0.253185 135.92 0.253185H132.152V12.3732ZM133.904 5.77318V1.69318H135.848C137.192 1.69318 137.912 2.34118 137.912 3.58918C137.912 5.02918 137.144 5.77318 135.728 5.77318H133.904Z" fill="white"/>
</g>
</svg>

<svg width="141" height="13" fill="none" xmlns="http://www.w3.org/2000/svg"><path d="M4.812 12.613c1.272 0 2.28-.408 2.952-1.176.528-.576.792-1.296 1.08-2.688l-1.68-.408c-.432 2.16-.96 2.808-2.232 2.808-1.656 0-2.592-1.752-2.592-4.8 0-3.192.912-4.872 2.616-4.872.696 0 1.224.288 1.608.864.24.36.336.624.6 1.92l1.752-.408C8.34 1.165 7.116.013 4.884.013 2.052.013.396 2.317.396 6.325c0 4.056 1.584 6.288 4.416 6.288zm5.25-.24h1.776l.912-3.408h3.552l.936 3.408h1.752L15.582.253h-1.92l-3.6 12.12zm3.048-4.8l1.416-5.592 1.392 5.592H13.11zm8.444 4.8h1.752V1.693h2.976V.253h-7.608v1.44h2.88v10.68zm6.418 0h7.2v-1.44h-5.448V6.805h4.224v-1.44h-4.224V1.693h5.304V.253h-7.056v12.12zm13.238.24c1.633 0 2.4-.552 3-2.088l.193 2.016h1.128V6.205h-4.248V7.67h2.471v.024c0 .576-.143 1.656-.311 2.064-.384.936-1.056 1.392-2.017 1.392-1.8 0-2.736-1.68-2.736-4.872s.913-4.8 2.713-4.8c1.272 0 1.824.576 2.4 2.568l1.656-.6C44.785.997 43.633.013 41.425.013c-3 0-4.68 2.256-4.68 6.264 0 4.008 1.633 6.336 4.465 6.336zm11.066 0c2.904 0 4.512-2.232 4.512-6.288 0-4.032-1.608-6.312-4.44-6.312-3.024 0-4.632 2.208-4.632 6.336 0 4.008 1.632 6.264 4.56 6.264zm-1.896-2.592c-.456-.792-.72-2.112-.72-3.72 0-3.216.888-4.824 2.64-4.824 1.656 0 2.544 1.68 2.544 4.824 0 3.192-.888 4.848-2.568 4.848-.912 0-1.44-.312-1.896-1.128zm8.975 2.352h1.752v-5.16h2.184l2.016 5.16h1.944l-2.304-5.568c1.296-.648 1.968-1.728 1.968-3.168 0-2.136-1.392-3.384-3.792-3.384h-3.768v12.12zm1.752-6.6v-4.08h1.944c1.344 0 2.064.648 2.064 1.896 0 1.44-.768 2.184-2.184 2.184h-1.824zm9.883 6.6h1.752V7.261L76.246.253h-1.704l-2.52 5.424L69.406.253h-1.92l3.504 7.008v5.112zm10.841 0h1.752V6.71h4.368v5.664h1.752V.253h-1.752V5.27h-4.368V.253h-1.752v12.12zm10.922 0h7.2v-1.44h-5.448V6.805h4.224v-1.44h-4.224V1.693h5.304V.253h-7.056v12.12zm8.247 0h1.776l.912-3.408h3.552l.936 3.408h1.752L106.52.253h-1.92l-3.6 12.12zm3.048-4.8l1.416-5.592 1.392 5.592h-2.808zm7.924 4.8h2.712c3.528 0 5.784-2.4 5.784-6.144 0-3.696-2.208-5.976-5.784-5.976h-2.712v12.12zm1.752-1.44v-9.24h.96c2.424 0 3.84 1.728 3.84 4.656 0 2.904-1.392 4.584-3.84 4.584h-.96zm9.147 1.44h7.2v-1.44h-5.448V6.805h4.224v-1.44h-4.224V1.693h5.304V.253h-7.056v12.12zm9.281 0h1.752v-5.16h2.184l2.016 5.16h1.944l-2.304-5.568c1.296-.648 1.968-1.728 1.968-3.168 0-2.136-1.392-3.384-3.792-3.384h-3.768v12.12zm1.752-6.6v-4.08h1.944c1.344 0 2.064.648 2.064 1.896 0 1.44-.768 2.184-2.184 2.184h-1.824z" fill="#fff"/></svg>
